!!!!SEGMENT: pl-sa--154-a-iv-4--001_anonim--missa-kyrie.krn
!!!cenid: 17xx:1520
!!!COM: Anonim
!!!COM-rismID: pe30004985
!!!CDT:
!!!CNT:
!!!OPR: Missa
!!!OTL: Kyrie
!!!OMV: 001
!!!PDT: 1767
!!!AGN: Sacred; Mass
!!!SMS-siglum: PL-SA
!!!SMS-shelfmark: 154/A IV 4
!!!SMS-shelfwork: 001-001 M
!!!SMS-variant:
!!!SMS-altvar:
!!!NIFC-rismSourceID: 1001035514
!!!NIFC-islandoraID:
!!!URL-pdf-islandora:
!!!URL-scan: https://bc.bdsandomierz.pl/dlibra/publication/1540/edition/1508/content @EN{Scan in the Sandomierz Diocese Digital Library} @PL{Skany w portalu Cyfrowa Biblioteka Diecezjalna w Sandomierzu}
!!!ONB-nifc: UWAGA: części Mszy: 1. Kyrie, 2. Gloria, 3. Patrem, 4. Sanctus, 5. Agnus. Uwaga: część Sanctus zawiera Benedictus
!!!AIN: 1 bass 2 clrno 1 organ 1 soprn 2 violn
!!!key: G
**kern	**fba	**kern	**dynam	**kern	**dynam	**kern	**text	**kern	**text	**kern	**kern
*part7	*	*part6	*part6	*part5	*part5	*part4	*part4	*part3	*part3	*part2	*part1
*group4	*	*group3	*	*group3	*	*group2	*group2	*group2	*group2	*group1	*group1
*staff7	*	*staff6	*	*staff5	*	*staff4	*staff4	*staff3	*staff3	*staff2	*staff1
*I"Organo.	*	*I"Violino 2do.	*	*I"Violino Primo	*	*I"Baſso	*	*I"Canto.	*	*I"Clarino 2do Ex	*I"Clarino 1·mo ex
*I'org	*	*I'vl 2	*	*I'vl 1	*	*I'B	*	*I'S	*	*I'clno 2	*I'clno 1
*Iorgan	*	*Ivioln	*	*Ivioln	*	*Ibass	*	*Isoprn	*	*Iclrno	*Iclrno
*ICklav	*	*ICstr	*	*ICstr	*	*ICvox	*	*ICvox	*	*ICbras	*ICbras
*clefF4	*	*clefG2	*	*clefG2	*	*clefF4	*	*clefC2	*	*clefG2	*clefG2
*	*	*	*	*	*	*	*	*	*	*ITrd-1c-2	*ITrd-1c-2
*k[f#]	*	*k[f#]	*	*k[f#]	*	*k[f#]	*	*k[f#]	*	*k[f#c#]	*k[f#c#]
*G:	*	*G:	*	*G:	*	*G:	*	*G:	*	*G:	*G:
*	*	*	*	*	*	*	*	*	*	*	*
*M4/4	*	*M4/4	*	*M4/4	*	*M4/4	*	*M4/4	*	*M4/4	*M4/4
*met(c)	*	*met(c)	*	*met(c)	*	*met(c)	*	*met(c)	*	*met(c)	*met(c)
=1	=1	=1	=1	=1	=1	=1	=1	=1	=1	=1	=1
!	!	!	!	!	!	!	!	!LO:CL:ed	!	!	!
*	*	*	*	*	*	*	*	*clefC1	*	*	*
*2\right	*	*2\right	*	*2\right	*	*2\right	*	*2\right	*	*2\right	*2\right
!!LO:TX:t=P:problem:oznaczenie metryczne C z kropką
!LO:TX:t=P:problem=przy kluczu F# FF#	!	!LO:TX:t=P:problem=przy kluczu ff# f#	!	!LO:TX:t=P:problem=przy kluczu ff# f#	!	!	!	!	!	!	!
!LO:TX:a:B:t=Adagio	!	!LO:TX:a:B:t=Adagio	!	!LO:TX:a:B:t=Adagio	!	!LO:TX:a:B:t=Adagio	!	!LO:TX:a:B:t=Adagio	!	!LO:TX:a:B:t=Adagio	!
!	!	!	!	!LO:N:n=2:vis=4	!	!	!	!	!	!	!
!	!	!	!	!LO:N:n=3:vis=4	!	!	!	!	!	!	!
!	!	!	!	!LO:N:n=4:vis=4	!	!	!	!	!	!	!
4.G\	.	4.b/	.	4.gg 4.b 4.d 4.G/	.	4.G\	KI-	4.dd\	KI-	4.gg\	4bb\
.	.	.	.	.	.	.	.	.	.	.	4bb\
8G\	.	8b/	.	8gg\	.	8G\	-ri-	8dd\	-ri-	8gg\	.
4G\	.	4b/	.	4gg\	.	4G\	-e	4dd\	-e	4gg\	4bb\
4G\	.	4b/	.	4gg\	.	4G\	e-	4dd\	e-	4gg\	4bb\
=2	=2	=2	=2	=2	=2	=2	=2	=2	=2	=2	=2
2E\	.	2b/	.	2gg\	.	2E\	-ley-	2gg\	-lei-	2gg\	2bb\
4E\	.	4b/	.	4gg\	.	4E\	ſon	4gg\	-ſon	4gg\	4bb\
*	*	*	*	*	*	*	*	*	*ij	*	*
4E\	.	4b/	.	4gg\	.	4E\	e-	4g\	KI-	4r	4bb\
=3	=3	=3	=3	=3	=3	=3	=3	=3	=3	=3	=3
8C#X/L	x 2	8b/L	.	8gg\L	.	2C#X/	-leẏ-	2ee\	-ri-	8r	8r
8C#/	.	8b/	.	8gg\	.	.	.	.	.	8gg\L	8bb\L
8C#/	.	8b/	.	8gg\	.	.	.	.	.	8gg\	8bb\
8C#/J	.	8b/J	.	8gg\J	.	.	.	.	.	8gg\J	8bb\J
8C#/L	.	8b/L	.	8gg\L	.	4C#/	-son	4ee\	-e	4gg\	4bb\
8C#/	.	8g/	.	8b\	.	.	.	.	.	.	.
8C#/	.	8g/	.	8b\	.	4C#/	e-	4b\	e-	8r	8r
8C#/J	.	8g/J	.	8b\J	.	.	.	.	.	8gg\	8bb\
=4	=4	=4	=4	=4	=4	=4	=4	=4	=4	=4	=4
8D/L	x 4	8g/L	.	8b/L	.	2D/	-ley-	4b\	-lei-	8gg\L	8bb\L
8D/	.	8g/	.	8b/	.	.	.	.	.	8gg\	8bb\
8D/	x 3	8g/	.	8a/	.	.	.	4a\	.	8ff#\	8aa\
8D/J	.	8f#/J	.	8a/J	.	.	.	.	.	8ff#\J	8aa\J
2D;</	.	2f#/	.	2a;;/	.	2D;/	-son	2a;\	-ſon	2ff#;\	2aa;\
*	*	*	*	*	*	*	*	*	*Xij	*	*
=5||	=5||	=5||	=5||	=5||	=5||	=5||	=5||	=5||	=5||	=5||	=5||
*M4/4	*	*M4/4	*	*M4/4	*	*M4/4	*	*M4/4	*	*M4/4	*M4/4
*met(c)	*	*met(c)	*	*met(c)	*	*met(c)	*	*met(c)	*	*met(c)	*met(c)
!!LO:TX:t=P:problem:oznaczenie metryczne C z kropką
!LO:TX:t=P:problem=mixed beam	!	!	!	!	!	!	!	!	!	!	!
!LO:TX:b:t=Kirie	!	!	!	!	!	!	!	!	!	!LO:TX:b:t=Kirie	!LO:TX:b:t=Kirie
!LO:TX:a:B:t=allegro	!	!LO:TX:a:B:t=Allo	!	!LO:TX:a:B:t=Allo	!	!	!	!LO:TX:a:B:t=Allo	!	!	!LO:TX:a:B:t=Allo
8GG/L	.	8B/L	.	8g|\L	.	00r	.	00r	.	4dd\	4dd\
8G\	.	8g/	.	8b|\	.	.	.	.	.	.	.
8G\	.	8b/	.	8dd|\	.	.	.	.	.	4r	4r
8G\J	.	8dd/J	.	8gg|\J	.	.	.	.	.	.	.
!LO:TX:t=P:problem=mixed beam	!	!	!	!	!	!	!	!	!	!	!
8GG/L	.	8g/L	.	8b|\L	.	.	.	.	.	4dd\	4gg\
8G\	.	8b/	.	8dd|\	.	.	.	.	.	.	.
8G\	.	8dd/	.	8gg|\	.	.	.	.	.	4r	4r
8G\J	.	8gg/J	.	8bb|\J	.	.	.	.	.	.	.
=6	=6	=6	=6	=6	=6	=6	=6	=6	=6	=6	=6
!LO:TX:t=P:problem=mixed beam	!	!	!	!	!	!	!	!	!	!	!
8GG/L	.	8b\L	.	8dd|\L	.	.	.	.	.	4gg\	4bb\
8G\	.	8dd\	.	8gg|\	.	.	.	.	.	.	.
!	!	!	!	!	!	!	!	!	!	!	!LO:N:vis=4
8G\	.	8gg\	.	8bb|\	.	.	.	.	.	4r	8bb\
!	!	!	!	!	!	!	!	!	!	!	!LO:N:vis=4
8G\J	.	8bb\J	.	8ddd|\J	.	.	.	.	.	.	8r
4D/	.	16aa\LL	.	16ccc\LL	.	.	.	.	.	8r	8r
.	.	16gg\	.	16bb\	.	.	.	.	.	.	.
.	.	16ff#\	.	16aa\	.	.	.	.	.	8ff#\L	8aa\L
.	.	16ee\JJ	.	16gg\JJ	.	.	.	.	.	.	.
4r	.	16dd\LL	.	16ff#\LL	.	.	.	.	.	8ff#\	8aa\
.	.	16cc\	.	16ee\	.	.	.	.	.	.	.
.	.	16b\	.	16dd\	.	.	.	.	.	8ff#\J	8aa\J
.	.	16a\JJ	.	16cc\JJ	.	.	.	.	.	.	.
!	!	!	!	!	!	!	!	!	!	!	!LO:LB:g=original
=7	=7	=7	=7	=7	=7	=7	=7	=7	=7	=7	=7
8GG/L	.	8g/	.	8b\	.	.	.	.	.	4gg\	4bb\
8GG/	.	4g/	.	4b\	.	.	.	.	.	.	.
8GG/	.	.	.	.	.	.	.	.	.	4r	4r
8GG/J	.	16a/LL	.	16cc\LL	.	.	.	.	.	.	.
.	.	16b/JJ	.	16dd\JJ	.	.	.	.	.	.	.
4DD/	.	16a/LL	.	16cc/LL	.	.	.	.	.	8r	8r
.	.	16g/	.	16b/	.	.	.	.	.	.	.
.	.	16f#/	.	16a/	.	.	.	.	.	16d/LL	16d/LL
.	.	16e/JJ	.	16g/JJ	.	.	.	.	.	16d/l	16d/JJ
!	!	!	!	!LO:LB:g=original	!	!	!	!	!	!	!
4r	.	16d/LL	.	16f#/LL	.	.	.	.	.	8d/J	8d/L
.	.	16c/	.	16e/	.	.	.	.	.	.	.
.	.	16A/	.	16d/	.	.	.	.	.	8d/Jj	8d/J
.	.	16F#/JJ	.	16c/JJ	.	.	.	.	.	.	.
!	!	!LO:LB:g=original	!	!	!	!	!	!	!	!	!
=8	=8	=8	=8	=8	=8	=8	=8	=8	=8	=8	=8
!LO:TX:t=P:problem=mixed beam	!	!	!	!	!	!	!	!	!	!	!
8GG/L	.	16G/LL	.	8B/	.	.	.	.	.	4d/	4d/
.	.	16B/	.	.	.	.	.	.	.	.	.
8G\	.	16d/	.	4g/	.	.	.	.	.	.	.
.	.	16B/JJ	.	.	.	.	.	.	.	.	.
8G\	.	16d/LL	.	.	.	.	.	.	.	4r	4r
.	.	16B/	.	.	.	.	.	.	.	.	.
8G\J	.	16d/	.	16b/LL	.	.	.	.	.	.	.
.	.	16B/JJ	.	16dd/JJ	.	.	.	.	.	.	.
!LO:TX:t=P:problem=mixed beam	!	!	!	!	!	!	!	!	!	!	!
8GG/L	.	16G/LL	.	8G/	.	.	.	.	.	4ee\	4gg\
.	.	16c/	.	.	.	.	.	.	.	.	.
8G\	.	16e/	.	4g/	.	.	.	.	.	.	.
.	.	16c/JJ	.	.	.	.	.	.	.	.	.
8G\	.	16e/LL	.	.	.	.	.	.	.	4r	4r
.	.	16c/	.	.	.	.	.	.	.	.	.
8G\J	.	16e/	.	16cc\LL	.	.	.	.	.	.	.
.	.	16c/JJ	.	16ee\JJ	.	.	.	.	.	.	.
=9	=9	=9	=9	=9	=9	=9	=9	=9	=9	=9	=9
!	!	!LO:TX:t=P:problem=mixed beam	!	!	!	!	!	!	!	!	!
4GG/	.	16B/LL	.	16dd\LL	.	1r	.	1r	.	4dd\	4gg\
.	.	16gg\	.	16bb\	.	.	.	.	.	.	.
.	.	16ff#\	.	16aa\	.	.	.	.	.	.	.
.	.	16ee\JJ	.	16gg\JJ	.	.	.	.	.	.	.
4r	.	16dd\LL	.	16ff#\LL	.	.	.	.	.	4r	4r
.	.	16cc\	.	16ee\	.	.	.	.	.	.	.
.	.	16b\	.	16dd\	.	.	.	.	.	.	.
.	.	16a\JJ	.	16cc\JJ	.	.	.	.	.	.	.
*	*	*Xtuplet	*	*Xtuplet	*	*	*	*	*	*	*
!LO:TX:t=P:problem=mixed beam	!	!LO:TUP:b:problem=klamra łukowa	!	!LO:TUP:a:problem=klamra łukowa	!	!	!	!	!	!	!
8G\L	.	24g/LL	.	24b\LL	.	.	.	.	.	4dd\	4gg\
.	.	24f#/	.	24a\	.	.	.	.	.	.	.
.	.	24g/JJ	.	24b\JJ	.	.	.	.	.	.	.
!	!	!	!	!LO:TUP:a:problem=klamra łukowa	!	!	!	!	!	!	!
8C\	.	8e/	.	24cc\LL	.	.	.	.	.	.	.
.	.	.	.	24b\	.	.	.	.	.	.	.
.	.	.	.	24a\JJ	.	.	.	.	.	.	.
8D\	.	4f#t/	.	4a/	.	.	.	.	.	4dd\	4ff#\
8DD/J	.	.	.	.	.	.	.	.	.	.	.
!	!	!	!	!	!	!	!	!	!	!LO:LB:g=original	!
=10	=10	=10	=10	=10	=10	=10	=10	=10	=10	=10	=10
!LO:TX:t=P:problem=mixed beam	!	!	!	!	!	!	!	!	!	!	!
8GG/L	.	8g/L	.	8g\L	.	2r	.	8.g\	ki-	8dd\L	8gg\L
8G\	.	8d 8B/	.	8b\	.	.	.	.	.	16dd\L	8dd\
.	.	.	.	.	.	.	.	16g\	-ri-	16dd\JJ	.
!	!	!	!	!	!	!	!	!LO:N:vis=16	!	!	!
8G\	.	8d 8B/	.	8dd\	.	.	.	8g\	-e	8dd\L	8dd\
!	!	!	!	!	!	!	!	!LO:N:vis=16	!	!	!
8G\J	.	8dJ 8B/	.	8gg\J	.	.	.	8g\	e-	8dd\J	8dd\J
*custos:C	*	*	*	*	*	*	*	*	*	*	*
!!LO:TX:t=P:problem:wszystkie custos użyte jako łamanie pięciolinii
!LO:TX:t=P:problem=mixed beam	!	!	!	!	!	!	!	!	!	!	!
!LO:LB:g=original	!	!	!	!	!	!	!	!	!	!	!
8GG/L	.	8g\L	.	8b\L	.	8G\	Ki-	4b\	-lei-	4dd\	4dd\
!	!	!	!	!	!	!LO:N:vis=4	!	!	!	!	!
8G\	.	8b\	.	8dd\	.	16G\	-ri-	.	.	.	.
.	.	.	.	.	.	16G\	-e	.	.	.	.
8G\	.	8dd\	.	8gg\	.	8G\	.	8b\	-ſon	8r	8r
8G\J	.	8gg\J	.	8bb\J	.	8G\	e-	8b\	e-	8dd\	8gg\
=11	=11	=11	=11	=11	=11	=11	=11	=11	=11	=11	=11
!LO:TX:t=P:problem=mixed beam	!	!	!	!	!	!	!	!	!	!	!
8GG/L	.	8b\L	.	8dd\L	.	4B\	-ley-	4dd\	-lei-	4dd\	4gg\
8G\	.	8dd\	.	8gg\	.	.	.	.	.	.	.
8G\	.	8gg\	.	8bb\	.	8B\	ſon	8dd\	-ſon	8r	8r
8G\J	.	8bb\J	.	8ddd\J	.	8B\	e-	8gg\	e-	8gg\	8bb\
8d\L	.	16aa\LL	.	16ccc\LL	.	8d\	-ley-	8ff#\	-lei-	4ff#\	4aa\
.	.	16gg\	.	16bb\	.	.	.	.	.	.	.
8d\J	.	16ff#\	.	16aa\	.	8d\	ſon	8ff#\	-ſon	.	.
.	.	16ee\JJ	.	16gg\JJ	.	.	.	.	.	.	.
8r	.	16dd\LL	.	16ff#\LL	.	8r	.	8r	.	8r	8r
.	.	16cc\	.	16ee\	.	.	.	.	.	.	.
8D\	.	16b\	.	16dd\	.	8D/	e-	8cc\	e-	8ff#\	8aa\
.	.	16a\JJ	.	16cc\JJ	.	.	.	.	.	.	.
=12	=12	=12	=12	=12	=12	=12	=12	=12	=12	=12	=12
!LO:TX:t=P:problem=mixed beam	!	!	!	!	!	!	!	!	!	!	!
8GG/L	.	8g/	.	8b\	.	8G\	-lei-	8b\	-lei-	8gg\	8bb\
8G\	.	4g/	.	4b\	.	4G\	.	4b\	-ſon	4gg\	4bb\
8G\	.	.	.	.	.	.	.	.	.	.	.
8G\J	.	16a/LL	.	16cc\LL	.	16A\LL	.	16cc\LL	e-	16ff#\LL	16aa\LL
.	.	16b/JJ	.	16dd\JJ	.	16B\JJ	.	16dd\JJ	.	16ee\JJ	16gg\JJ
!LO:TX:t=P:problem=mixed beam	!	!	!	!	!	!	!	!	!	!	!
8D\L	.	16a/LL	.	16cc/LL	.	16A\LL	.	16cc\LL	-lei-	4ff#\	4aa\
.	.	16g/	.	16b/	.	16G\	.	16b\JJ	.	.	.
8DD/J	.	16f#/	.	16a/	.	16F#\	.	8a\	-ſon	.	.
.	.	16e/JJ	.	16g/JJ	.	16E\JJ	.	.	.	.	.
!	!	!	!	!	!	!LO:LB:g=original	!	!	!	!	!
8r	.	16d/LL	.	16f#/LL	.	8D\	-ſon	8r	.	4r	4r
.	.	16c/	.	16e/	.	.	.	.	.	.	.
8D\	.	16B/	.	16d/	.	8D\	e-	8a\	e-	.	.
.	.	16A/JJ	.	16c/JJ	.	.	.	.	.	.	.
!	!	!LO:LB:g=original	!	!LO:LB:g=original	!	!	!	!LO:LB:g=original	!	!	!
=13	=13	=13	=13	=13	=13	=13	=13	=13	=13	=13	=13
!	!	!	!	!	!	!	!	!	!	!LO:SIC:v:s=4gg\	!
8GG/L	.	8G/L	.	16B/LL	.	8G\	-lei-	(8b\L	-lei-	4ff#\	4bb\
.	.	.	.	16g/	.	.	.	.	.	.	.
8GG/	.	8B/	.	16b/	.	8G\	ſon	8dd\J)	.	.	.
.	.	.	.	16dd/JJ	.	.	.	.	.	.	.
8GG/	.	8B/	.	16b\LL	.	8r	.	8b\	-ſon	4r	4r
.	.	.	.	16g\	.	.	.	.	.	.	.
*	*	*	*	*	*	*	*ij	*	*	*	*
8GG/J	.	8B/J	.	16b\	.	8G\	e-	8g\	e-	.	.
.	.	.	.	16dd\JJ	.	.	.	.	.	.	.
8C/L	.	16G/LL	.	8ee\L	.	8c\L	-lei-	8ee\	-lei-	8r	8r
.	.	16c/	.	.	.	.	.	.	.	.	.
8C/	.	16e/	.	8ee\	.	8G\J	.	8ee\	-ſon	8ee\L	8gg\L
.	.	16g/JJ	.	.	.	.	.	.	.	.	.
8C/	.	16e/LL	.	8ee\	.	8E\	-ſon	8r	.	8ee\	8gg\
.	.	16c/	.	.	.	.	.	.	.	.	.
*	*	*	*	*	*	*	*	*	*ij	*	*
8C/J	.	16e/	.	8ee\J	.	8C\	e-	8ee\	e-	8ee\J	8gg\J
.	.	16g/JJ	.	.	.	.	.	.	.	.	.
=14	=14	=14	=14	=14	=14	=14	=14	=14	=14	=14	=14
8AA/L	x #	8e/L	.	16ee\LL	.	8A\	-lei-	8cc#X\L	-lei-	4ee\	4aa\
.	.	.	.	16a\	.	.	.	.	.	.	.
8AA/	.	8c#X/	.	16cc#X\	.	8A\	-ſon	8ee\J	.	.	.
.	.	.	.	16ee\JJ	.	.	.	.	.	.	.
8AA/	.	8c#/	.	16cc#\LL	.	8r	.	8cc#\	-ſon	4r	4r
.	.	.	.	16a\	.	.	.	.	.	.	.
8AA/J	.	8c#/J	.	16cc#\	.	8A\	e-	8a\	e-	.	.
.	.	.	.	16ee\JJ	.	.	.	.	.	.	.
8D/L	.	16A/LL	.	8ff#\L	.	8d\L	-lei-	8ff#\	-lei-	8r	8r
.	.	16d/	.	.	.	.	.	.	.	.	.
8D/	.	16f#/	.	8ff#\	.	8A\J	.	8ff#\	-ſon	8ff#\L	8aa\L
.	.	16a/JJ	.	.	.	.	.	.	.	.	.
8D/	.	16f#/LL	.	8ff#\	.	8F#\	-ſon	8r	.	8ff#\	8aa\
.	.	16d/	.	.	.	.	.	.	.	.	.
8D/J	.	16f#/	.	8ff#\J	.	8D\	e-	8ff#\	e-	8ff#\J	8aa\J
.	.	16a/JJ	.	.	.	.	.	.	.	.	.
!	!	!	!	!	!	!	!	!	!	!	!LO:LB:g=original
=15	=15	=15	=15	=15	=15	=15	=15	=15	=15	=15	=15
8BB/L	.	8f#/L	.	16ff#\LL	.	8B\	-lei-	8dd#X\L	-lei-	4ff#\	4bb\
.	.	.	.	16b\	.	.	.	.	.	.	.
8BB/	.	8d#X/	.	16dd#X\	.	8B\	-ſon	8ff#\J	.	.	.
*	*	*	*	*	*	*	*Xij	*	*	*	*
.	.	.	.	16ff#\JJ	.	.	.	.	.	.	.
8BB/	.	8d#/	.	16dd#\LL	.	8r	.	8dd#\	-ſon	4r	4r
.	.	.	.	16b\	.	.	.	.	.	.	.
8BB/J	.	8d#/J	.	16dd#\	.	8B\	e-	8b\	e-	.	.
.	.	.	.	16ff#\JJ	.	.	.	.	.	.	.
8E\L	.	16B/LL	.	8gg\L	.	8e\L	-ley-	8gg\	-lei-	8r	8r
.	.	16e/	.	.	.	.	.	.	.	.	.
8E\	.	16g/	.	8gg\	.	8B\J	.	8gg\	-ſon	8gg\L	8bb\L
*	*	*	*	*	*	*	*	*	*Xij	*	*
.	.	16b/JJ	.	.	.	.	.	.	.	.	.
8E\	.	16g/LL	.	8gg\	.	8G\	ſon	8r	.	8gg\	8bb\
.	.	16e/	.	.	.	.	.	.	.	.	.
8E\J	.	16g/	.	8gg\J	.	8E\	e-	8gg\	e-	8gg\J	8bb\J
.	.	16b/JJ	.	.	.	.	.	.	.	.	.
=16	=16	=16	=16	=16	=16	=16	=16	=16	=16	=16	=16
!LO:SIC:v:s=8An\L	!	!	!	!	!	!	!	!	!	!	!
!LO:TX:t=P:problem=mixed beam	!	!LO:TX:t=P:problem=mixed beam	!	!	!	!	!	!	!	!	!
8A#X\L	.	16e/LL	.	8gg\	.	8A\	-ley-	8gg\	-lei-	4ee\	4ccc#\
.	.	16cc#X\	.	.	.	.	.	.	.	.	.
8AA/	.	16ee\	.	4a/	.	8A\	ſon	4ee\	.	.	.
.	.	16cc#\JJ	.	.	.	.	.	.	.	.	.
8AA/	.	16ee\LL	.	.	.	4r	.	.	.	4r	4r
.	.	16cc#\	.	.	.	.	.	.	.	.	.
8AA/J	.	16ee\	.	16cc#X\LL	.	.	.	4cc#X\	.	.	.
.	.	16cc#\JJ	.	16ee\JJ	.	.	.	.	.	.	.
8AA/L	x #	16ee\LL	.	16gg\LL	.	8r	.	.	.	8r	8r
.	.	16cc#\	.	16ff#\J	.	.	.	.	.	.	.
8AA/	.	16ee\	.	8gg\J	.	8A\	e-	4a\	.	8ee\L	8ccc#\L
.	.	16cc#\JJ	.	.	.	.	.	.	.	.	.
8AA/	x 2	16ee\LL	.	8r	.	8c#X\L	-ley-	.	.	8ee\	8ccc#\
.	.	16cc#\	.	.	.	.	.	.	.	.	.
8AA/J	.	16ee\	.	8gg\	.	8e\J	.	[<8gg\	.	8ee\J	8ccc#\J
.	.	16cc#\JJ	.	.	.	.	.	.	.	.	.
=17	=17	=17	=17	=17	=17	=17	=17	=17	=17	=17	=17
!	!	!	!	!	!	!	!	!	!	!	!LO:SIC:v:s=4ccc#\
8AA/L	x #	16a\LL	.	8gg\	.	4A\	ſon	8gg\]	.	4ee\	4ddd\
!	!	!LO:SIC:v:s=16cc#\	!	!	!	!	!	!	!	!	!
.	.	16cc\	.	.	.	.	.	.	.	.	.
8AA/	.	16ee\	.	4a/	.	.	.	4ee\	.	.	.
!	!	!LO:SIC:v:s=16cc#\JJ	!	!	!	!	!	!	!	!	!
.	.	16cc\JJ	.	.	.	.	.	.	.	.	.
8AA/	x 2	16aa\LL	.	.	.	4r	.	.	.	4r	4r
!	!	!LO:SIC:v:s=16cc#\	!	!	!	!	!	!	!	!	!
.	.	16cc\	.	.	.	.	.	.	.	.	.
8AA/J	.	16ee\	.	16cc#X\LL	.	.	.	4cc#X\	.	.	.
!	!	!LO:SIC:v:s=16cc#\JJ	!	!	!	!	!	!	!	!	!
.	.	16cc\JJ	.	16ee\JJ	.	.	.	.	.	.	.
!LO:TX:t=P:problem=mixed beam	!	!	!	!	!	!	!	!	!	!	!
8AA/L	.	16ee\LL	.	(16gg\LL	.	8r	.	.	.	8r	8r
.	.	16cc#X\	.	16ff#\J)	.	.	.	.	.	.	.
8A\	.	16ee\	.	8gg\J	.	8A\	e-	4a\	.	8ee\L	8ccc#\L
.	.	16cc#\JJ	.	.	.	.	.	.	.	.	.
8c#X\	.	16ee\LL	.	8r	.	8c#X\L	-ley-	.	.	8ee\	8ccc#\
.	.	16cc#\	.	.	.	.	.	.	.	.	.
8A\J	.	16ee\	.	8gg\	.	8A\J	.	8ee\	.	8ee\J	8ccc#\J
.	.	16cc#\JJ	.	.	.	.	.	.	.	.	.
!	!	!LO:LB:g=original	!	!	!	!	!	!	!	!	!
=18	=18	=18	=18	=18	=18	=18	=18	=18	=18	=18	=18
!	!	!LO:TX:t=P:problem=mixed beam	!	!	!	!	!	!LO:TX:t=P:problem=niejednoznaczny zapis ozdobnika [przyjęto tryl]	!	!	!
8d\L	.	16dd\LL	.	16ff#\LL	.	1d	.	1ff#t<	.	4ff#\	4ddd\
.	.	16f#/	.	16dd\	.	.	.	.	.	.	.
8d\	.	16f#/	.	16dd\	.	.	.	.	.	.	.
.	.	16f#/JJ	.	16dd\JJ	.	.	.	.	.	.	.
8c#X\	.	16f#/LL	.	16dd\LL	.	.	.	.	.	8r	8r
.	.	16f#/	.	16dd\	.	.	.	.	.	.	.
!	!	!	!	!	!	!	!	!	!	!	!LO:N:vis=4
8c#\J	.	16f#/	.	16dd\	.	.	.	.	.	8dd\	8ff#\
.	.	16f#/JJ	.	16dd\JJ	.	.	.	.	.	.	.
!	!	!	!	!LO:LB:g=original	!	!	!	!	!	!	!
8B\L	.	16f#/LL	.	16dd\LL	.	.	.	.	.	2dd\	2ff#\
.	.	16f#/	.	16dd\	.	.	.	.	.	.	.
8B\	.	16f#/	.	16dd\	.	.	.	.	.	.	.
.	.	16f#/JJ	.	16dd\JJ	.	.	.	.	.	.	.
8A\	.	16f#/LL	.	16dd\LL	.	.	.	.	.	.	.
.	.	16f#/	.	16dd\	.	.	.	.	.	.	.
8G\J	.	16f#/	.	16dd\	.	.	.	.	.	.	.
.	.	16f#/JJ	.	16dd\JJ	.	.	.	.	.	.	.
!	!	!	!	!	!	!LO:LB:g=original	!	!	!	!LO:LB:g=original	!
=19	=19	=19	=19	=19	=19	=19	=19	=19	=19	=19	=19
!	!	!LO:TX:t=P:problem=mixed beam	!	!	!	!	!	!	!	!	!
8F#\L	.	8f#/L	.	8dd\L	.	4d\	-ſon	4ff#\	-ſon	8dd\L	8ff#\L
8F#\	.	8dd\	.	16ee\L	.	.	.	.	.	16a\L	16ee\L
.	.	.	.	16ff#\JJ	.	.	.	.	.	16dd\JJ	16ff#\JJ
!	!	!	!	!	!	!LO:SIC:v:s=4G\	!	!	!	!	!
8E\	.	8cc#X\	.	4ggT\	.	4A\	e-	4gg\	e-	4ee\	4gg\
8E\J	.	8cc#\J	.	.	.	.	.	.	.	.	.
!	!	!LO:TX:t=P:problem=mixed beam	!	!	!	!	!	!	!	!	!
8D\L	x 3	8a/L	.	8ff#\L	.	4D/	-ley-	8aa\L	-lei-	8dd\L	8ff#\L
!	!	!	!	!	!	!	!	!LO:SIC:v:s=8an\	!	!	!
8D\	.	8a/	.	16gg\L	.	.	.	8a#X\	.	16ee\L	16gg\L
.	.	.	.	16aa\JJ	.	.	.	.	.	16ff#\JJ	16aa\JJ
8G\	.	8dd\	.	8bb\L	.	4G\	.	8b\	.	8gg\L	8bb\L
8G\J	x 7	8ee\J	.	8cc#X\J	.	.	.	8cc#X\J	.	8ee\J	8ccc#\J
!LO:LB:g=original	!	!	!	!	!	!	!	!	!	!	!
=20	=20	=20	=20	=20	=20	=20	=20	=20	=20	=20	=20
!	!	!	!	!LO:TX:t=P:problem=mixed beam	!	!	!	!	!	!	!
8F#\L	.	8a/L	.	16dd\KL	.	8F#\L	.	4dd\	.	8ff#\L	8ddd\L
.	.	.	.	8d/	.	.	.	.	.	.	.
8B\	.	8f#/	.	.	.	8B\	.	.	.	8dd\J	8dd\J
.	.	.	.	16e/Jk	.	.	.	.	.	.	.
8G\	.	8B/	.	4eT/	.	8G\	.	4ee\	.	4a/	4ee\
8A\J	.	8A/J	.	.	.	8A\J	.	.	.	.	.
!LO:TX:a:t=vio	!	!	!	!	!	!	!	!	!	!	!LO:TX:t=P:problem=mixed beam
8D\L	.	8A/L	.	8d/L	.	4D/	-ſon	4dd\	-ſon	8f#/L	8dd\L
8D\	.	8d/	.	8f#/	.	.	.	.	.	8d/	8f#/
8D\	.	8f#/	.	8a/	.	4r	.	4r	.	8f#/	8a/
8D\J	.	8a/J	.	8dd/J	.	.	.	.	.	8a/J	8dd/J
=21	=21	=21	=21	=21	=21	=21	=21	=21	=21	=21	=21
!LO:TX:t=P:problem=mixed beam	!	!	!	!	!	!	!	!	!	!	!
8DD/L	.	8d/L	.	8f#\L	.	0r	.	0r	.	8r	8r
8D\	.	8f#/	.	8a\	.	.	.	.	.	8f#/L	8a\L
8D\	.	8a/	.	8dd\	.	.	.	.	.	8a/	8dd\
8D\J	.	8dd/J	.	8ff#\J	.	.	.	.	.	8dd/J	8ff#\J
!LO:TX:t=P:problem=mixed beam	!	!	!	!	!	!	!	!	!	!	!
8DD/L	.	8f#/L	.	8a\L	.	.	.	.	.	8r	8r
8D\	.	8a/	.	8dd\	.	.	.	.	.	8a\L	8dd\L
8D\	.	8dd/	.	8ff#\	.	.	.	.	.	8dd\	8ff#\
8D\J	.	8ff#/J	.	8aa\J	.	.	.	.	.	8ff#\J	8aa\J
=22	=22	=22	=22	=22	=22	=22	=22	=22	=22	=22	=22
4AA/	.	16ee\LL	.	16gg\LL	.	.	.	.	.	4ee\	4gg\
.	.	16dd\	.	16ff#\	.	.	.	.	.	.	.
.	.	16cc#X\	.	16ee\	.	.	.	.	.	.	.
.	.	16b\JJ	.	16dd\JJ	.	.	.	.	.	.	.
4r	.	16a/LL	.	16cc#X\LL	.	.	.	.	.	4r	4r
.	.	16g/	.	16b\	.	.	.	.	.	.	.
.	.	16f#/	.	16a\	.	.	.	.	.	.	.
.	.	16e/JJ	.	16g\JJ	.	.	.	.	.	.	.
!LO:TX:t=P:problem=mixed beam	!	!	!	!	!	!	!	!	!	!	!
8DD/L	.	8d/	.	8f#/	.	.	.	.	.	8dd\	8r
8D\	.	4d/	.	4f#/	.	.	.	.	.	4dd\	8ff#\
8D\	.	.	.	.	.	.	.	.	.	.	8ff#\L
8D\J	.	16e/LL	.	16g/LL	.	.	.	.	.	16ee\LL	16gg\L
.	.	16f#/JJ	.	16a/JJ	.	.	.	.	.	16ff#\JJ	16aa\JJ
!	!	!	!	!	!	!	!	!	!	!	!LO:LB:g=original
=23	=23	=23	=23	=23	=23	=23	=23	=23	=23	=23	=23
4AA/	.	8e/L	.	8g|/L	.	1r	.	1r	.	8ee\L	8gg\L
.	.	8e/	.	8g|/	.	.	.	.	.	(8ee\	8gg\
8r	.	8d/	.	8f#|/	.	.	.	.	.	8dd\)	8ff#\
8AA/	.	8c#X/J	.	8e/|J	.	.	.	.	.	8a\J	8ee\J
!	!	!LO:TX:t=P:problem=mixed beam	!	!	!	!	!	!	!	!	!
8D\L	.	8.A/L	.	16f#/LL	.	.	.	.	.	4dd\	4ff#t\
.	.	.	.	16a/	.	.	.	.	.	.	.
16F#\L	.	.	.	16dd/	.	.	.	.	.	.	.
16D\JJ	.	16cc#X\Jk	.	16a/JJ	.	.	.	.	.	.	.
!LO:TX:t=P:problem=mixed beam	!	!	!	!	!	!	!	!	!	!	!
8A\L	.	4cc#t\	.	4eeT\	.	.	.	.	.	4a/	4ee\
8AA/J	.	.	.	.	.	.	.	.	.	.	.
!	!	!	!	!LO:LB:g=original	!	!	!	!LO:LB:g=original	!	!	!
=24	=24	=24	=24	=24	=24	=24	=24	=24	=24	=24	=24
!LO:TX:t=P:problem=mixed beam	!	!LO:TX:t=P:problem=mixed beam	!LO:DY:a	!LO:TX:t=P:problem=mixed beam	!LO:DY:a	!	!	!	!	!	!
!	!	!	!LO:DY:t=pia	!	!LO:DY:t=pia	!	!	!	!	!	!
8DD/L	.	8dd\L	p	8dd\L	p	2r	.	4dd\	Chris-	4f#/	4dd\
8D\	.	8d/	.	8d/	.	.	.	.	.	.	.
8F#\	.	8f#/	.	8f#/	.	.	.	8dd\	-te	4r	4r
8D\J	.	8d/J	.	8d/J	.	.	.	8dd\	e-	.	.
8G\L	.	8g/L	.	8g/L	.	4d\	Chri-	4ee\	-lei-	2r	2r
8F#\	.	8f#/	.	8f#/	.	.	.	.	.	.	.
8G\	.	8g/	.	8g/	.	8d\	-ſte	8ee\	-ſon	.	.
8E\J	.	8e/J	.	8e/J	.	8d\	e-	8ee\	e-	.	.
!	!	!LO:LB:g=original	!	!	!	!	!	!	!	!	!
=25	=25	=25	=25	=25	=25	=25	=25	=25	=25	=25	=25
!LO:TX:t=P:problem=mixed beam	!	!	!	!	!	!	!	!	!	!	!
8A\L	.	8a/L	.	8a/L	.	8d\L	-lei-	4.ee\	-lei-	00r	00r
8G\	.	8g/	.	8g/	.	16c#X\L	.	.	.	.	.
.	.	.	.	.	.	16B\JJ	.	.	.	.	.
8A\	.	8a/	.	8a/	.	8c#\L	.	.	.	.	.
8AA/J	.	8A/J	.	8A/J	.	16d\L	.	16ff#\LL	.	.	.
.	.	.	.	.	.	16e\JJ	.	16gg\JJ	.	.	.
4D/	.	4d/	.	4d/	.	8d\L	.	8ff#\L	.	.	.
.	.	.	.	.	.	8A\J	.	16ee\L	.	.	.
.	.	.	.	.	.	.	.	16ff#\JJ	.	.	.
8r	.	4r	.	4r	.	8D/	-ſon	8dd\	-ſon	.	.
8D/	.	.	.	.	.	8r	.	8dd\	e-	.	.
=26	=26	=26	=26	=26	=26	=26	=26	=26	=26	=26	=26
8G\L	.	8g\L	.	8b\L	.	4r	.	(8dd\L	-lei-	.	.
8G\	.	8b\	.	8dd\	.	.	.	8b\J)	.	.	.
8G\	.	8dd\	.	8gg\	.	8r	.	8g\	-ſon	.	.
8G\J	.	8gg\J	.	8bb\J	.	8G\	e-	8dd\	e-	.	.
8C#X/L	.	8e/L	.	8g\L	.	8G\L	-ley-	16ee\LL	-lei-	.	.
.	.	.	.	.	.	.	.	16dd\JJ	.	.	.
8C#/	.	8g/	.	8cc#X\	.	8E\J	.	8ee\	-ſon	.	.
8C#/	.	8cc#X/	.	8ee\	.	8C#X/	-ſon	8r	.	.	.
8C#/J	.	8ee/J	.	8gg\J	.	8G\	e-	8cc#X\	e-	.	.
=27	=27	=27	=27	=27	=27	=27	=27	=27	=27	=27	=27
*	*	*	*	*	*	*	*ij	*	*	*	*
!	!	!	!	!	!	!	!	!LO:SIC:v:s=8cc#\L	!	!	!
8F#\L	.	8f#/L	.	8a\L	.	8A\	-lei-	8cc\L	-lei-	.	.
8F#\	.	8a/	.	8cc#X\	.	8A\	-ſon	8a\J	.	.	.
!	!	!	!	!	!	!	!	!LO:TX:t=x:problem=innym atramentem?	!	!	!
8F#\	.	8cc#X/	.	8ee\	.	8r	.	8f#/	-ſon	.	.
*	*	*	*	*	*	*	*	*	*ij	*	*
!	!	!	!	!	!	!	!	!LO:SIC:v:s=8cc#\	!	!	!
8F#\J	.	8ff#/J	.	8aa\J	.	8F#\	e-	8cc\	e-	.	.
8BB/L	.	8d/L	.	8f#/L	.	8F#\L	-ley-	16dd\LL	-lei-	.	.
.	.	.	.	.	.	.	.	16cc#X\JJ	.	.	.
8BB/	.	8f#/	.	8a/	.	8D\J	.	8dd\	-ſon	.	.
8BB/	.	8b/	.	8dd/	.	8BB/	-ſon	8r	.	.	.
8BB/J	.	8dd/J	.	8ff#/J	.	8F#\	e-	8b\	e-	.	.
=28	=28	=28	=28	=28	=28	=28	=28	=28	=28	=28	=28
8E\L	.	8e/L	.	8g\L	.	8G\	-ley-	8b\L	-lei-	.	.
8E\	.	8g/	.	8b\	.	8G\	-ſon	8g\J	.	.	.
8E\	.	8b/	.	8ee\	.	8r	.	8e/	-ſon	.	.
8E\J	.	8ee/J	.	8gg\J	.	8E\	e-	8b\	e-	.	.
!	!	!	!	!	!	!LO:LB:g=original	!	!	!	!	!
8AA/L	.	8c#X/L	.	8e/L	.	8E\L	-ley-	16cc#X\LL	-lei-	.	.
.	.	.	.	.	.	.	.	16b\JJ	.	.	.
8AA/	.	8e/	.	8a/	.	8C#X\J	.	8cc#\	-ſon	.	.
*	*	*	*	*	*	*	*	*	*Xij	*	*
8AA/	.	8a/	.	8cc#X/	.	8AA/	-ſon	8r	.	.	.
*	*	*	*	*	*	*	*Xij	*	*	*	*
!	!	!LO:SIC:v:s=8cc#/J	!	!	!	!	!	!	!	!	!
8AA/J	.	8cc/J	.	8ee/J	.	8E\	.	8cc#\	e-	.	.
!LO:LB:g=original	!	!	!	!	!	!	!	!	!	!	!
=29	=29	=29	=29	=29	=29	=29	=29	=29	=29	=29	=29
8D\L	.	8dd\L	.	8a\L	.	4F#\	e-	8dd\L	-lei-	00r	00r
8D\	.	8a\	.	8dd\	.	.	.	8a\	.	.	.
8E\	.	8g\	.	8cc#X\	.	8E\L	-ley-	8g\	.	.	.
8F#\J	.	8a\J	.	8dd\J	.	8D\J	.	8f#\J	.	.	.
8G\L	x 6\	8d/L	.	8b/L	.	8G\L	.	8b\L	.	.	.
!	!	!LO:SIC:v:s=8c#/	!	!	!	!	!	!	!	!	!
8E\	.	8c/	.	16a/L	.	8E\	.	16a\L	.	.	.
.	.	.	.	16g/JJ	.	.	.	16g\JJ	.	.	.
8F#\	.	8d/	.	8a/L	.	8F#\	.	8a\	-ſon	.	.
8G\J	.	8B/J	.	8g/J	.	8G\J	.	8g\	e-	.	.
=30	=30	=30	=30	=30	=30	=30	=30	=30	=30	=30	=30
!LO:TX:t=P:problem=mixed beam	!	!	!	!	!	!	!	!	!	!	!
8A\L	x 4	4d/	.	4f#/	.	4A\	.	4f#/	-lei-	.	.
8A\	.	.	.	.	.	.	.	.	.	.	.
!	!	!	!	!	!	!LO:SIC:v:s=4AA/	!	!	!	!	!
8AA/	x #	4c#X/	.	4eT/	.	4GG/	.	4e/	.	.	.
8AA/J	.	.	.	.	.	.	.	.	.	.	.
8D\L	.	4d/	.	4d/	.	8D/	-ſon	4d/	-ſon	.	.
8d\	.	.	.	.	.	8d\	Chri-	.	.	.	.
8d\	.	4r	.	4r	.	8d\	-ste	4r	.	.	.
8cn\J	.	.	.	.	.	8cn\	e-	.	.	.	.
!	!	!	!	!	!	!	!	!LO:LB:g=original	!	!	!
=31	=31	=31	=31	=31	=31	=31	=31	=31	=31	=31	=31
!	!	!LO:TX:a:t=2	!	!LO:TX:a:t=2	!	!	!	!	!	!	!
8B\L	.	0r	.	0r	.	4B\	.	8r	.	.	.
8B\	.	.	.	.	.	.	.	8gg\	Chri-	.	.
8B\	.	.	.	.	.	8B\	-ley-	8gg\	-ste	.	.
8B\J	.	.	.	.	.	8B\	-ſon	8ff#\	e-	.	.
4c\	.	.	.	.	.	4c\	e-	4ee\	-lei-	.	.
8A\L	x #	.	.	.	.	8A\L	-ley-	8ff#\L	.	.	.
8B\J	.	.	.	.	.	8B\J	.	8dd#X\J	.	.	.
=32	=32	=32	=32	=32	=32	=32	=32	=32	=32	=32	=32
4c\	.	.	.	.	.	4c\	.	8ee\L	.	.	.
.	.	.	.	.	.	.	.	16dd#X\L	.	.	.
.	.	.	.	.	.	.	.	16ee\JJ	.	.	.
8A\L	x #	.	.	.	.	8A\L	.	8ff#\L	.	.	.
8B\J	.	.	.	.	.	8B\J	.	8dd#X\J	.	.	.
8c\L	.	.	.	.	.	8c\L	.	8ee\L	.	.	.
16B\L	.	.	.	.	.	16B\L	.	16dd#X\L	.	.	.
16A\JJ	.	.	.	.	.	16A\JJ	.	16cc\JJ	.	.	.
8G\L	.	.	.	.	.	8G\L	.	8b\L	.	.	.
8A\J	.	.	.	.	.	8A\J	.	8a\J	.	.	.
!	!	!	!	!LO:LB:g=original	!	!	!	!	!	!	!
=33	=33	=33	=33	=33	=33	=33	=33	=33	=33	=33	=33
4B\	x #	2r	.	2r	.	4B\	.	4g/	.	00r	00r
4BB/	.	.	.	.	.	4BB/	.	4f#/	.	.	.
!	!	!	!	!	!LO:DY:b:t=fort	!	!	!	!	!	!
8E\L	.	8B/L	.	8e/L	f	4E\	-ſon	8e/	-ſon	.	.
8E\	.	8e/	.	8g/	.	.	.	16e/	ki-	.	.
.	.	.	.	.	.	.	.	16e/	-ri-	.	.
!LO:TX:t=tut	!	!	!	!	!	!	!	!	!	!	!
8E\	.	8g/	.	8b/	.	4r	.	8e/	-e	.	.
8E\J	.	8b/J	.	8ee/J	.	.	.	8e/	e-	.	.
=34	=34	=34	=34	=34	=34	=34	=34	=34	=34	=34	=34
!LO:TX:t=P:problem=mixed beam	!	!	!	!	!	!	!	!	!	!	!
8EE/L	.	8e/L	.	8g\L	.	8r	.	4e/	-lei-	.	.
8E\	.	8g/	.	8b\	.	16E\	Ki-	.	.	.	.
.	.	.	.	.	.	16E\	-ri-	.	.	.	.
8E\	.	8b/	.	8ee\	.	8E\	-e	8e/	-ſon	.	.
8E\J	.	8ee/J	.	8gg\J	.	8E\	e-	8e/	e-	.	.
!LO:TX:t=P:problem=mixed beam	!	!	!	!	!	!	!	!	!	!	!
8EE/L	.	8g\L	.	8b\L	.	4G\	-ley-	4b\	-lei-	.	.
8E\	.	8b\	.	8ee\	.	.	.	.	.	.	.
8E\	.	8ee\	.	8gg\	.	8G\	-son	8b\	-ſon	.	.
*	*	*	*	*	*	*	*	*	*ij	*	*
8E\J	.	8gg\J	.	8bb\J	.	8E\	e-	8ee\	e-	.	.
=35	=35	=35	=35	=35	=35	=35	=35	=35	=35	=35	=35
8B\L	.	16ff#\LL	.	16aa\LL	.	8B\	-ley-	8dd#X\	-lei-	.	.
.	.	16ee\	.	16gg\	.	.	.	.	.	.	.
8B\J	.	16dd#X\	.	16ff#\	.	8B\	-ſon	8dd#\	-ſon	.	.
*	*	*	*	*	*	*	*	*	*Xij	*	*
.	.	16cc\JJ	.	16ee\JJ	.	.	.	.	.	.	.
8r	.	16b\LL	.	16dd#X\LL	.	8r	.	8r	.	.	.
.	.	16a\	.	16cc\	.	.	.	.	.	.	.
!	!	!	!	!	!	!LO:LB:g=original	!	!	!	!	!
8BB/	.	16g\	.	16b\	.	8F#\	e-	8a\	e-	.	.
.	.	16f#\JJ	.	16a\JJ	.	.	.	.	.	.	.
8E\L	.	8e/	.	8g/	.	4.E\	-ley-	4.g\	-lei-	.	.
8E\	.	4e/	.	4g/	.	.	.	.	.	.	.
8E\	.	.	.	.	.	.	.	.	.	.	.
8E\J	.	16f#/LL	.	16a/LL	.	16F#\LL	.	16a\LL	.	.	.
.	.	16g/JJ	.	16b/JJ	.	16G\JJ	.	16b\JJ	.	.	.
!	!	!LO:LB:g=original	!	!	!	!	!	!	!	!	!
=36	=36	=36	=36	=36	=36	=36	=36	=36	=36	=36	=36
8BB/L	.	16f#/LL	.	16a/LL	.	8F#\	-ſon	16a\LL	.	.	.
.	.	16e/	.	16g/	.	.	.	16g\JJ	.	.	.
8BB/J	.	16d#X/	.	16f#/	.	8BB/	.	8f#/	-ſon	.	.
.	.	16c/JJ	.	16e/JJ	.	.	.	.	.	.	.
8r	.	8B/	.	16d#X/LL	.	8r	.	8r	.	.	.
.	.	.	.	16c/	.	.	.	.	.	.	.
*	*	*	*	*	*	*	*ij	*	*ij	*	*
8BB/	.	8r	.	16B/	.	8BB/	e-	8b\	e-	.	.
.	.	.	.	16A/JJ	.	.	.	.	.	.	.
!	!	!LO:TX:t=P:problem=mixed beam	!	!LO:TX:t=P:problem=mixed beam	!	!	!	!	!	!	!
8E\L	.	16e/LL	.	8G/L	.	8E\	-ley-	4gg\	-lei-	.	.
.	.	16ee\JJ	.	.	.	.	.	.	.	.	.
8E\	.	16b\LL	.	8ee\	.	8E\	-ſon	.	.	.	.
*	*	*	*	*	*	*	*Xij	*	*	*	*
.	.	16g\JJ	.	.	.	.	.	.	.	.	.
8E\	.	16e/LL	.	8gg\	.	8r	.	8gg\	-ſon	.	.
.	.	16g/	.	.	.	.	.	.	.	.	.
8E\J	.	16b/	.	8bb\J	.	8E\	e-	8ee\	e-	.	.
.	.	16ee/JJ	.	.	.	.	.	.	.	.	.
=37	=37	=37	=37	=37	=37	=37	=37	=37	=37	=37	=37
!	!	!LO:TX:t=P:problem=mixed beam	!	!	!	!	!	!	!	!	!
8AA/L	.	8A/L	.	16ccc\LL	.	4c\	-ley-	16ee\LL	-lei-	00r	00r
.	.	.	.	16aa\	.	.	.	16cc\JJ	.	.	.
8AA/	.	8a\J	.	16ee\	.	.	.	8a\	-ſon	.	.
.	.	.	.	16cc\JJ	.	.	.	.	.	.	.
8AA/	.	8cc\L	.	16a\LL	.	8c\	-ſon	8r	.	.	.
.	.	.	.	16cc\	.	.	.	.	.	.	.
8AA/J	.	8ee\J	.	16ee\	.	8A\	e-	8a\	e-	.	.
.	.	.	.	16aa\JJ	.	.	.	.	.	.	.
*	*	*	*	*	*	*	*	*custos:f	*	*	*
!	!	!	!	!LO:TX:t=P:problem=mixed beam	!	!	!	!LO:LB:g=original	!	!	!
8D/L	.	16ff#\LL	.	8f#/L	.	16A\LL	-ley-	4ff#\	-lei-	.	.
.	.	16dd\	.	.	.	16F#\JJ	.	.	.	.	.
8D/	.	16a\	.	8dd\	.	8D\	-ſon	.	.	.	.
.	.	16g\JJ	.	.	.	.	.	.	.	.	.
8D/	.	16d/LL	.	8ff#\	.	8r	.	8ff#\	-ſon	.	.
.	.	16f#/	.	.	.	.	.	.	.	.	.
*	*	*	*	*	*	*	*ij	*	*	*	*
8D/J	.	16a/	.	8aa\J	.	8D\	e-	8dd\	e-	.	.
.	.	16dd/JJ	.	.	.	.	.	.	.	.	.
=38	=38	=38	=38	=38	=38	=38	=38	=38	=38	=38	=38
8GG/L	.	8G/L	.	16bb\LL	.	4B\	-ley-	16dd\LL	-lei-	.	.
.	.	.	.	16gg\	.	.	.	16b\JJ	.	.	.
8GG/	.	8g/	.	16dd\	.	.	.	8g\	-ſon	.	.
.	.	.	.	16b\JJ	.	.	.	.	.	.	.
8GG/	.	8b/	.	16g\LL	.	8B\	-ſon	8r	.	.	.
.	.	.	.	16b\	.	.	.	.	.	.	.
8GG/J	.	8dd/J	.	16dd\	.	8G\	e-	8g\	e-	.	.
*	*	*	*	*custos:cc	*	*	*	*	*	*	*
!	!	!	!	!LO:LB:g=original	!	!	!	!	!	!	!
.	.	.	.	16gg\JJ	.	.	.	.	.	.	.
*custos:C	*	*	*	*	*	*	*	*	*	*	*
!LO:LB:g=original	!	!	!	!LO:TX:t=P:problem=mixed beam	!	!	!	!	!	!	!
8C/L	.	16ee\LL	.	8c/L	.	16G\LL	-ley-	4ee\	-lei-	.	.
.	.	16cc\	.	.	.	16E\JJ	.	.	.	.	.
8C/	.	16g\	.	8cc\	.	8C/	-ſon	.	.	.	.
.	.	16e\JJ	.	.	.	.	.	.	.	.	.
8C/	.	16c/LL	.	8ee\	.	8r	.	8ee\	-ſon	.	.
.	.	16e/	.	.	.	.	.	.	.	.	.
8C/J	.	16g/	.	8gg\J	.	8C/	e-	8cc\	e-	.	.
.	.	16cc/JJ	.	.	.	.	.	.	.	.	.
=39	=39	=39	=39	=39	=39	=39	=39	=39	=39	=39	=39
8FF#/L	.	8f#/L	.	16aa\LL	.	4A\	-ley-	16cc\LL	-lei-	.	.
.	.	.	.	16ff#\	.	.	.	16a\JJ	.	.	.
8FF#/	.	8f#/	.	16cc\	.	.	.	8f#/	-ſon	.	.
*	*	*	*	*	*	*	*	*	*Xij	*	*
.	.	.	.	16a\JJ	.	.	.	.	.	.	.
8FF#/	.	8a/	.	16f#\LL	.	8A\	-ſon	8r	.	.	.
.	.	.	.	16a\	.	.	.	.	.	.	.
8FF#/J	.	8cc/J	.	16cc\	.	8F#\	e-	8f#/	e-	.	.
.	.	.	.	16ff#\JJ	.	.	.	.	.	.	.
!	!	!LO:SIC:v:s=16dd#\LL	!	!LO:TX:t=P:problem=mixed beam	!	!	!	!	!	!	!
8BB/L	x #	16dd\LL	.	8B/L	.	16F#\LL	-ley-	4dd#X\	-lei-	.	.
.	.	16b\	.	.	.	16D#X\JJ	.	.	.	.	.
8BB/	.	16f#\	.	8b\	.	8BB/	-ſon	.	.	.	.
*	*	*	*	*	*	*	*Xij	*	*	*	*
.	.	16d#X\JJ	.	.	.	.	.	.	.	.	.
8BB/	.	16B/LL	.	8dd#X\	.	8r	.	8dd#\	-ſon	.	.
.	.	16d#X/	.	.	.	.	.	.	.	.	.
8BB/J	.	16f#/	.	8ff#\J	.	8BB/	e-	8b\	e-	.	.
.	.	16b/JJ	.	.	.	.	.	.	.	.	.
=40	=40	=40	=40	=40	=40	=40	=40	=40	=40	=40	=40
8E\L	.	8ee\L	.	8gg\L	.	4B\	-ley-	8ee\L	-lei-	.	.
!	!	!	!	!	!	!	!	!LO:SIC:v:s=8dd#\J	!	!	!
8BB\	x #	8dd#X\J	.	8ff#\J	.	.	.	8dd\J	.	.	.
!	!	!	!	!	!	!	!	!LO:SIC:v:s=8dd#\	!	!	!
8BB\	.	16b\LL	.	16dd#X\LL	.	8B\	-ſon	8ee\	-ſon	.	.
.	.	16dd#X\	.	16b\	.	.	.	.	.	.	.
8B\J	.	16ff#\	.	16aa\	.	8B\	e-	8ff#\	e-	.	.
.	.	16dd#\JJ	.	16ff#\JJ	.	.	.	.	.	.	.
8e\L	.	8ee\L	.	8gg\L	.	8e\	-ley-	8gg\	-lei-	.	.
!	!	!	!	!	!	!LO:N:vis=4	!	!	!	!	!
8c\J	.	8dd#X\J	.	8ff#\J	.	8B\	-ſon	8ff#\	-ſon	.	.
16B\LL	.	16dn/LL	.	4r	.	4r	.	4r	.	.	.
16c\	.	16e/	.	.	.	.	.	.	.	.	.
16B\	.	16d/	.	.	.	.	.	.	.	.	.
16A\JJ	.	16c/JJ	.	.	.	.	.	.	.	.	.
=41	=41	=41	=41	=41	=41	=41	=41	=41	=41	=41	=41
8G\L	.	8B/L	.	8g\L	.	2r	.	8.g/	ki-	8dd\L	8dd\L
8G\	.	8d/	.	8b\	.	.	.	.	.	8dd\	8dd\
.	.	.	.	.	.	.	.	16g/	-ri-	.	.
8G\	.	8g/	.	8dd\	.	.	.	8g/	-e	8dd\	8dd\
8G\J	.	8b/J	.	8gg\J	.	.	.	8g/	e-	8dd\J	8dd\J
!LO:TX:t=P:problem=mixed beam	!	!	!	!	!	!	!	!	!	!	!LO:N:vis=8
8GG/L	.	8g\L	.	8b\L	.	8.G\	Ki-	4b\	-lei-	4dd\	4dd\
8G\	.	8b\	.	8dd\	.	.	.	.	.	.	.
!	!	!	!	!	!	!LO:LB:g=original	!	!	!	!	!
.	.	.	.	.	.	16G\	-ri-	.	.	.	.
8G\	.	8dd\	.	8gg\	.	8G\	-e	8b\	-ſon	8r	8r
8G\J	.	8gg\J	.	8bb\J	.	8G\	e-	8b\	e-	8dd\	8gg\
!	!	!LO:LB:g=original	!	!	!	!	!	!	!	!	!
=42	=42	=42	=42	=42	=42	=42	=42	=42	=42	=42	=42
!LO:TX:t=P:problem=mixed beam	!	!	!	!	!	!	!	!	!	!	!
8GG/L	.	8b\L	.	8dd\L	.	4B\	-lei-	4dd\	-lei-	4dd\	4gg\
8G\	.	8dd\	.	8gg\	.	.	.	.	.	.	.
8G\\	.	8gg\	.	8bb\	.	8B\	-ſon	8dd\	-ſon	8r	8r
8G\J	.	8bb\J	.	8ddd\J	.	8B\	e-	8gg\	e-	8gg\	8bb\
!	!	!	!	!	!	!	!	!	!	!LO:LB:g=original	!
4D\	.	16aa\LL	.	16ccc\LL	.	8d\	-lei-	8ff#\	-lei-	4ff#\	4aa\
.	.	16gg\	.	16bb\	.	.	.	.	.	.	.
.	.	16ff#\	.	16aa\	.	8d\	-ſon	8ff#\	-ſon	.	.
.	.	16ee\JJ	.	16gg\JJ	.	.	.	.	.	.	.
8r	.	16dd\LL	.	16ff#\LL	.	8r	.	8r	.	8r	8r
.	.	16cc\	.	16ee\	.	.	.	.	.	.	.
!	!	!	!	!	!	!	!	!	!	!	!LO:SIC:v:s=8cccn\
8D\	.	16b\	.	16dd\	.	8D/	e-	8cc\	e-	8aa\	8ccc#\
.	.	16a\JJ	.	16cc\JJ	.	.	.	.	.	.	.
=43	=43	=43	=43	=43	=43	=43	=43	=43	=43	=43	=43
!LO:TX:t=P:problem=mixed beam	!	!	!	!	!	!	!	!	!	!	!
8GG/L	.	8g/	.	8b\	.	4.G\	-ley-	4.b\	-lei-	8gg\	8bb\
8G\	.	4g/	.	4b\	.	.	.	.	.	4gg\	4bb\
8G\	.	.	.	.	.	.	.	.	.	.	.
8G\J	.	16a/LL	.	16cc\LL	.	16A\LL	.	16cc\LL	.	16ff#\LL	16aa\LL
.	.	16b/JJ	.	16dd\JJ	.	16B\JJ	.	16dd\JJ	.	16ee\JJ	16gg\JJ
4D\	.	16a/LL	.	16cc\LL	.	16A\LL	.	16cc\LL	-ſon	4ff#\	4aa\
.	.	16g/	.	16b\	.	16G\	.	16b\JJ	.	.	.
.	.	16f#/	.	16a\	.	16F#\	.	8a\	.	.	.
.	.	16e/JJ	.	16g\JJ	.	16E\JJ	.	.	.	.	.
8r	.	16d/LL	.	16f#/LL	.	8D\	-ſon	8r	.	4r	4r
.	.	16c/	.	16e/	.	.	.	.	.	.	.
*	*	*	*	*	*	*	*	*	*ij	*	*
8D\	.	16B/	.	16d/	.	8D\	e-	8a\	e-	.	.
.	.	16A/JJ	.	16c/JJ	.	.	.	.	.	.	.
!	!	!	!	!LO:LB:g=original	!	!	!	!LO:LB:g=original	!	!	!
=44	=44	=44	=44	=44	=44	=44	=44	=44	=44	=44	=44
!	!	!LO:TX:t=P:problem=mixed beam	!	!	!	!	!	!	!	!	!
8GG/L	.	8G/L	.	8B/L	.	8G\	-lei-	8b\L	-lei-	4gg\	4bb\
8GG/	.	16dd\L	.	8g/	.	8G\	-ſon	8dd\J	.	.	.
.	.	16cc\JJ	.	.	.	.	.	.	.	.	.
8GG/	.	16b/LL	.	8b/	.	8r	.	8b\	-ſon	4r	4r
.	.	16a/	.	.	.	.	.	.	.	.	.
8GG/J	.	16g/	.	8dd/J	.	8G\	e-	8g\	e-	.	.
.	.	16f#/JJ	.	.	.	.	.	.	.	.	.
8C/L	.	8e/L	.	16ee\LL	.	8c\L	-ley-	8ee\	-lei-	8r	8r
.	.	.	.	16ff#\	.	.	.	.	.	.	.
8C/	.	8g/	.	16gg\	.	8G\J	.	8ee\	-ſon	8ee\L	8gg\L
.	.	.	.	16ff#\JJ	.	.	.	.	.	.	.
8C/	.	8cc/	.	16ee\LL	.	8E\	-ſon	8r	.	8ee\	8gg\
.	.	.	.	16dd\	.	.	.	.	.	.	.
*	*	*	*	*	*	*	*ij	*	*	*	*
8C/J	.	8ee/J	.	16cc\	.	8C/	e-	8ee\	e-	8ee\J	8gg\J
.	.	.	.	16b\JJ	.	.	.	.	.	.	.
=45	=45	=45	=45	=45	=45	=45	=45	=45	=45	=45	=45
8AA/L	.	16cc#X\LL	.	8a\L	.	8A\	-ley-	(8cc#X\L	-lei-	4ee\	4aa\
.	.	16dd\	.	.	.	.	.	.	.	.	.
!	!	!	!	!	!	!LO:N:vis=4	!	!	!	!	!
8AA/	.	16ee\	.	8cc#X\	.	8A\	-ſon	8ee\J)	.	.	.
.	.	16dd\JJ	.	.	.	.	.	.	.	.	.
8AA/	.	16cc#\LL	.	8ee\	.	8r	.	8cc#\	-ſon	4r	4r
.	.	16b\	.	.	.	.	.	.	.	.	.
8AA/J	.	16a\	.	8gg\J	.	8A\	e-	8a\	e-	.	.
.	.	16g\JJ	.	.	.	.	.	.	.	.	.
8D/L	.	8f#/L	.	16ff#\LL	.	8d\L	-ley-	8ff#\	-lei-	8r	8r
.	.	.	.	16gg\	.	.	.	.	.	.	.
8D/	.	8a/	.	16aa\	.	8B\J	.	8ff#\	-ſon	8ff#\L	8aa\L
*	*	*	*	*	*	*	*	*	*Xij	*	*
.	.	.	.	16gg\JJ	.	.	.	.	.	.	.
8D/	.	8dd/	.	16ff#\LL	.	8F#\	-ſon	8r	.	8ff#\	8aa\
*	*	*	*	*	*	*	*Xij	*	*	*	*
.	.	.	.	16ee\	.	.	.	.	.	.	.
8D/J	.	8ff#/J	.	16dd\	.	8D\	e-	8ff#\	e-	8ff#\J	8aa\J
.	.	.	.	16cc#X\JJ	.	.	.	.	.	.	.
=46	=46	=46	=46	=46	=46	=46	=46	=46	=46	=46	=46
8D\L	.	8g\L	.	8b\L	.	2B\	-ley-	2gg\	-lei-	8gg\L	8bb\L
8D\	6 4	8b\	.	8dd\	.	.	.	.	.	8dd\	8dd\
8D\	.	8dd\	.	8gg\	.	.	.	.	.	8dd\	8gg\
8D\J	.	8gg\J	.	8bb\J	.	.	.	.	.	8gg\J	8bb\J
*	*	*	*	*	*	*	*	*	*	*	*custos:cc
!	!	!	!	!	!	!	!	!	!	!	!LO:LB:g=original
8D\L	.	8a\L	.	8dd\L	.	4A\	-ſon	4ff#\	-ſon	8r	8r
8D\	6 3	8dd\	.	8ff#\	.	.	.	.	.	8a\L	8dd\L
8D\	.	8ff#\	.	8aa\	.	8r	.	8r	.	8dd\	8ff#\
8D\J	.	8aa\J	.	8ccc\J	.	8F#\	e-	8a\	e-	8gg\J	8aa\J
!	!	!	!	!	!	!LO:LB:g=original	!	!	!	!	!
=47	=47	=47	=47	=47	=47	=47	=47	=47	=47	=47	=47
!LO:TX:t=P:problem=8F# poprawione na 8D	!	!	!	!	!	!	!	!	!	!	!
8D\L	.	8b\L	.	8dd\L	.	2G\	-ley-	2b\	-lei-	4r	8r
!LO:TX:t=P:problem=8F# poprawione na 8D	!	!	!	!	!	!	!	!	!	!	!
8D\	6 4	8dd\	.	8gg\	.	.	.	.	.	.	8dd\L
!LO:TX:t=P:problem=8F# poprawione na 8D	!	!	!	!	!	!	!	!	!	!	!
8D\	.	8gg\	.	8bb\	.	.	.	.	.	8dd\L	8gg\
!LO:TX:t=P:problem=8F# poprawione na 8D	!	!	!	!	!	!	!	!	!	!	!
8D\J	.	8bb\J	.	8ddd\J	.	.	.	.	.	8gg\J	8bb\J
8D\L	.	8aa\L	.	8ccc\L	.	8F#\L	.	8cc\L	.	16ff#\LL	16aa\LL
.	.	.	.	.	.	.	.	.	.	16aa\	16cccX\
8D\	x 3	16gg\L	.	16bb\L	.	8D\J	.	16b\L	.	16gg\	16bb\
.	.	16ff#\JJ	.	16aa\JJ	.	.	.	16a\JJ	.	16ff#\JJ	16aa\JJ
8G\	.	8gg\L	.	8bb\L	.	8G\	.	8b\	-ſon	8gg\L	8bb\L
!	!	!LO:SIC:v:s=8ee\J	!	!	!	!	!	!	!	!	!
8C\J	.	8dd\J	.	8gg\J	.	8C/	.	8ee\	e-	8ee\J	8gg\J
=48	=48	=48	=48	=48	=48	=48	=48	=48	=48	=48	=48
!LO:TX:t=P:problem=mixed beam	!	!	!	!	!	!	!	!	!	!	!
8D\L	.	4gg\	.	4gg\	.	2D/	.	(4b\	-lei-	4dd\	4gg\
8D\	.	.	.	.	.	.	.	.	.	.	.
8DD/	.	4ff#\	.	4aa\	.	.	.	4a\)	.	4dd\	4ff#\
8DD/J	.	.	.	.	.	.	.	.	.	.	.
!	!	!	!	!LO:TX:t=P:problem=mixed beam	!	!	!	!	!	!	!
8GG/L	.	8gg\L	.	8gg\L	.	4GG/	-ſon	4g\	-ſon	4dd\	4gg\
8GG/	.	16dd\L	.	8g/	.	.	.	.	.	.	.
.	.	16cc\JJ	.	.	.	.	.	.	.	.	.
8GG/	.	16b/LL	.	8b/	.	4r	.	4r	.	4r	4r
.	.	16a/	.	.	.	.	.	.	.	.	.
8GG/J	.	16g/	.	8dd/J	.	.	.	.	.	.	.
.	.	16f#/JJ	.	.	.	.	.	.	.	.	.
!	!	!LO:LB:g=original	!	!	!	!	!	!	!	!	!
=49	=49	=49	=49	=49	=49	=49	=49	=49	=49	=49	=49
8C/L	.	8e/L	.	16ee\LL	.	00r	.	00r	.	00r	00r
.	.	.	.	16ff#\	.	.	.	.	.	.	.
8C/	.	8g/	.	16gg\	.	.	.	.	.	.	.
.	.	.	.	16ff#\JJ	.	.	.	.	.	.	.
8C/	.	8cc/	.	16ee\LL	.	.	.	.	.	.	.
.	.	.	.	16dd\	.	.	.	.	.	.	.
8C/J	.	8ee/J	.	16cc\	.	.	.	.	.	.	.
.	.	.	.	16b\JJ	.	.	.	.	.	.	.
8AA/L	.	16cc#X\LL	.	8a\L	.	.	.	.	.	.	.
.	.	16dd\	.	.	.	.	.	.	.	.	.
8AA/	.	16ee\	.	8cc#X\	.	.	.	.	.	.	.
.	.	16dd\JJ	.	.	.	.	.	.	.	.	.
8AA/	.	16cc#\LL	.	8ee\	.	.	.	.	.	.	.
.	.	16b\	.	.	.	.	.	.	.	.	.
8AA/J	.	16a\	.	8gg\J	.	.	.	.	.	.	.
.	.	16g\JJ	.	.	.	.	.	.	.	.	.
=50	=50	=50	=50	=50	=50	=50	=50	=50	=50	=50	=50
8D\L	.	8f#/L	.	16ff#\LL	.	.	.	.	.	.	.
.	.	.	.	16gg\	.	.	.	.	.	.	.
8D\	5 3	8a/	.	16aa\	.	.	.	.	.	.	.
.	.	.	.	16gg\JJ	.	.	.	.	.	.	.
!	!	!	!	!LO:LB:g=original	!	!	!	!	!	!	!
8D\	.	8dd/	.	16ff#\LL	.	.	.	.	.	.	.
.	.	.	.	16ee\	.	.	.	.	.	.	.
8D\J	.	8ff#/J	.	16dd\	.	.	.	.	.	.	.
.	.	.	.	16cc#X\JJ	.	.	.	.	.	.	.
8D\L	.	8g/L	.	8b\L	.	.	.	.	.	.	.
8D\	.	8b/	.	8dd\	.	.	.	.	.	.	.
8D\	6 4	8dd/	.	8gg\	.	.	.	.	.	.	.
8D\J	.	8gg/J	.	8bb\J	.	.	.	.	.	.	.
=51	=51	=51	=51	=51	=51	=51	=51	=51	=51	=51	=51
8D\L	.	8a\L	.	8dd\L	.	.	.	.	.	.	.
8D\	5 3	8dd\	.	8ff#\	.	.	.	.	.	.	.
8D\	.	8ff#\	.	8aa\	.	.	.	.	.	.	.
8D\J	.	8aa\J	.	8ccc\J	.	.	.	.	.	.	.
8D\L	.	8b\L	.	8dd\L	.	.	.	.	.	.	.
8D\	.	8dd\	.	8gg\	.	.	.	.	.	.	.
8D\	6 4	8gg\	.	8bb\	.	.	.	.	.	.	.
8D\J	.	8bb\J	.	8ddd\J	.	.	.	.	.	.	.
=52	=52	=52	=52	=52	=52	=52	=52	=52	=52	=52	=52
8D\L	.	8aa\L	.	8ccc\L	.	.	.	.	.	.	.
8D\	.	16gg\L	.	16bb\L	.	.	.	.	.	.	.
.	.	16ff#\JJ	.	16aa\JJ	.	.	.	.	.	.	.
8G\	.	8gg\L	.	8bb\L	.	.	.	.	.	.	.
8C\J	.	8ee\J	.	8gg\J	.	.	.	.	.	.	.
!LO:TX:t=P:problem=mixed beam	!	!	!	!	!	!	!	!	!	!	!
8D\L	.	4gg\	.	4gg\	.	.	.	.	.	.	.
8D\	.	.	.	.	.	.	.	.	.	.	.
8DD/	.	4ff#\	.	4aaT\	.	.	.	.	.	.	.
8DD/J	.	.	.	.	.	.	.	.	.	.	.
=53	=53	=53	=53	=53	=53	=53	=53	=53	=53	=53	=53
!LO:TX:t=P:problem=mixed beam	!	!LO:TX:t=P:problem=mixed beam	!	!	!	!	!	!	!	!	!
8GG/L	.	8gg\L	.	8g\L	.	2r	.	8.g\	Ki-	8r	8r
8G\	.	8g/	.	8b\	.	.	.	.	.	8dd\L	8dd\L
.	.	.	.	.	.	.	.	16g\	-ri-	.	.
8G\	.	8b/	.	8dd\	.	.	.	8g\	-e	8dd\	8dd\
8G\J	.	8dd/J	.	8gg\J	.	.	.	8g\	e-	8dd\J	8dd\J
!LO:TX:t=P:problem=mixed beam	!	!	!	!	!	!	!	!	!	!	!
8GG/L	.	8g\L	.	8b\L	.	8.G\	Ki-	4b\	-lei-	4dd\	4dd\
8G\	.	8b\	.	8dd\	.	.	.	.	.	.	.
.	.	.	.	.	.	16G\	-ri-	.	.	.	.
8G\	.	8dd\	.	8gg\	.	8G\	-e	8b\	-ſon	8r	8r
8G\J	.	8gg\J	.	8bb\J	.	8G\	e-	8b\	e-	8dd\	8gg\
!	!	!	!	!	!	!	!	!	!	!LO:LB:g=original	!
=54	=54	=54	=54	=54	=54	=54	=54	=54	=54	=54	=54
!LO:TX:t=P:problem=mixed beam	!	!	!	!	!	!	!	!	!	!	!
8GG/L	.	8b\L	.	8dd\L	.	4B\	-ley-	4dd\	-lei-	4dd\	4gg\
8G\	.	8dd\	.	8gg\	.	.	.	.	.	.	.
8G\	.	8gg\	.	8bb\	.	8B\	-ſon	8dd\	-ſon	8r	8r
8G\J	.	8bb\J	.	8ddd\J	.	8B\	e-	8gg\	e-	8gg\L	8bb\L
8D\L	.	16aa\LL	.	16ccc\LL	.	8d\	-ley-	16ff#\LL	-lei-	8ff#\	8aa\
.	.	16ff#\J	.	16aa\J	.	.	.	16aa\JJ	.	.	.
8G\J	.	8gg\J	.	8bb\J	.	8G\	-ſon	8gg\	-ſon	8gg\J	8bb\J
8r	.	8r	.	8r	.	8r	.	8r	.	8r	8r
8c\	.	8ee\	.	8ccc\	.	8c\	e-	8ee\	e-	8ee\	8aa\
!	!	!	!	!	!	!	!	!LO:LB:g=original	!	!	!
=55	=55	=55	=55	=55	=55	=55	=55	=55	=55	=55	=55
4d\	.	4gg\	.	4bb\	.	4d\	-ley-	(4gg\	-lei-	4dd\	4gg\
4D/	.	4ff#\	.	4aa\	.	4D/	.	4ff#\)	.	4dd\	4ff#\
8G\L	.	8gg\L	.	8gg\L	.	8G\	.	8gg\	-ſon	4dd\	4gg\
16E\L	.	16ee\L	.	16ee\L	.	8E\	.	8a\	e-	.	.
16C\JJ	.	16cc\JJ	.	16cc\JJ	.	.	.	.	.	.	.
8AA/L	.	8a\L	.	8a\L	.	8C/L	.	4a\	-lei-	8r	8r
8D/J	.	8dd\J	.	8dd\J	.	8D/J	.	.	.	8dd\	8ff#\
=56	=56	=56	=56	=56	=56	=56	=56	=56	=56	=56	=56
4GG/	.	4g/	.	4g/	.	4GG/	-ſon	4g/	-ſon	4dd\	4gg\
4r	.	4r	.	4r	.	4r	.	4r	.	4r	4r
2r	.	2r	.	2r	.	2r	.	2r	.	2r	2r
==	==	==	==	==	==	==	==	==	==	==	==
*-	*-	*-	*-	*-	*-	*-	*-	*-	*-	*-	*-
!!!system-decoration: [(g1)][(g2)][(g3)]g4
!!!RDF**kern: | = vertical stroke
!!!RDF**kern: > = above
!!!RDF**kern: < = below
!!!ENC: Katarzyna Serwa
!!!END: 2022-03-23
!!!ENC: Andrzej Kubiczek
!!!END: 2020-12-11
